epam-assets/icon-sources/18/editor-list_number.svg

<svg xmlns="http://www.w3.org/2000/svg" width="18" height="18" fill="none" viewBox="0 0 18 18">
  <path fill="#6C6F80" fill-rule="evenodd" d="M1.5 12.75H3v.375h-.75v.75H3v.375H1.5V15h2.25v-3H1.5v.75ZM2.25 6H3V3H1.5v.75h.75V6ZM1.5 8.25h1.35L1.5 9.825v.675h2.25v-.75H2.4l1.35-1.575V7.5H1.5v.75Zm3.75-4.5v1.5h10.5v-1.5H5.25Zm0 10.5h10.5v-1.5H5.25v1.5Zm0-4.5h10.5v-1.5H5.25v1.5Z" clip-rule="evenodd"/>
</svg>

<svg width="18" height="18" viewBox="0 0 18 18" fill="none" xmlns="http://www.w3.org/2000/svg">
<g id="18/editor-list_number">
<path id="icon" fill-rule="evenodd" clip-rule="evenodd" d="M1.5 12.75H3V13.125H2.25V13.875H3V14.25H1.5V15H3.75V12H1.5V12.75ZM2.25 6H3V3H1.5V3.75H2.25V6ZM1.5 8.25H2.85L1.5 9.825V10.5H3.75V9.75H2.4L3.75 8.175V7.5H1.5V8.25ZM5.25 3.75V5.25H15.75V3.75H5.25ZM5.25 14.25H15.75V12.75H5.25V14.25ZM5.25 9.75H15.75V8.25H5.25V9.75Z" fill="#6C6F80"/>
</g>
</svg>
